X:20
T:Black Nag (the)
R:jig 24
M:6/8
L:1/8
B:The Round Band Book of Playford
K:G
B, | E2E F2F | G2G AGA | BAG FGF |  E3-E2 :: \
E | FDB, FDB, | FDB, FDB, |! BGE BGE | BGE BGE | \
FDB, FDB, | FDB, FGA | BAG FGF | E3-E2 :|

